icons/symbol-interface.svg

<svg xmlns="http://www.w3.org/2000/svg" fill="#91b859" viewBox="0 0 24 24"><path d="M6 9V4h7v5h10v7h-5v5h-7v-5H1V9zm10 7h-3v3h3zM8 9h3V6H8zm-2 5v-3H3v3zm12-3v3h3v-3zm-5 0v3h3v-3zm-5 0v3h3v-3z"/></svg>

<!--
  - The MIT License (MIT)
  -
  - Copyright (c) 2015-2024 Elior "Mallowigi" Boukhobza
  -
  - Permission is hereby granted, free of charge, to any person obtaining a copy
  - of this software and associated documentation files (the "Software"), to deal
  - in the Software without restriction, including without limitation the rights
  - to use, copy, modify, merge, publish, distribute, sublicense, and/or sell
  - copies of the Software, and to permit persons to whom the Software is
  - furnished to do so, subject to the following conditions:
  -
  - The above copyright notice and this permission notice shall be included in all
  - copies or substantial portions of the Software.
  -
  - THE SOFTWARE IS PROVIDED "AS IS", WITHOUT WARRANTY OF ANY KIND, EXPRESS OR
  - IMPLIED, INCLUDING BUT NOT LIMITED TO THE WARRANTIES OF MERCHANTABILITY,
  - FITNESS FOR A PARTICULAR PURPOSE AND NONINFRINGEMENT. IN NO EVENT SHALL THE
  - AUTHORS OR COPYRIGHT HOLDERS BE LIABLE FOR ANY CLAIM, DAMAGES OR OTHER
  - LIABILITY, WHETHER IN AN ACTION OF CONTRACT, TORT OR OTHERWISE, ARISING FROM,
  - OUT OF OR IN CONNECTION WITH THE SOFTWARE OR THE USE OR OTHER DEALINGS IN THE
  - SOFTWARE.
  -
  -->


<svg xmlns="http://www.w3.org/2000/svg" version="1.1" width="16px" height="16px" viewBox="0 0 24 24"
     fill="#91B859">
  <path
      d="M6,9V4H13V9H23V16H18V21H11V16H1V9H6M16,16H13V19H16V16M8,9H11V6H8V9M6,14V11H3V14H6M18,11V14H21V11H18M13,11V14H16V11H13M8,11V14H11V11H8Z"/>
</svg>
